CUBE/3dlut_lib/b.cube
# Copyright: (C) Copyright 2010-2020 by IWLTBAP SAS
# Cannot be resold, shared or otherwise redistributed
# Website: https://luts.iwltbap.com
TITLE "IWLTBAP 8120 (Rec.709, sRGB, DCI-P3)"
LUT_3D_SIZE 9
0.000000 0.000000 0.000000
0.113312 0.041244 0.013485
0.214219 0.092506 0.058327
0.322239 0.126400 0.075492
0.412567 0.177658 0.125229
0.502754 0.225818 0.166218
0.605644 0.274452 0.207916
0.710835 0.317765 0.238396
0.791870 0.353668 0.264008
0.000000 0.088154 0.019363
0.079386 0.108206 0.019455
0.209142 0.137264 0.013989
0.343759 0.168028 0.001007
0.465683 0.206129 0.032221
0.569344 0.240779 0.086363
0.668618 0.286931 0.146345
0.757376 0.332964 0.200135
0.827591 0.373111 0.239708
0.000000 0.159218 0.035340
0.022534 0.175799 0.018578
0.178501 0.206505 0.030029
0.326096 0.229799 0.023020
0.459278 0.259441 0.018410
0.586391 0.290715 0.049493
0.723198 0.320442 0.060486
0.831790 0.347126 0.082819
0.886917 0.389328 0.155372
0.000210 0.235211 0.073418
0.007313 0.247756 0.052929
0.148358 0.279545 0.041245
0.312266 0.309596 0.061965
0.450073 0.321236 0.043507
0.587747 0.344051 0.029269
0.731787 0.372439 0.041529
0.851375 0.397267 0.057457
0.921905 0.448440 0.108791
0.007843 0.312973 0.114807
0.014898 0.326010 0.089751
0.103821 0.351555 0.058525
0.299530 0.389553 0.071919
0.440476 0.409004 0.087608
0.589035 0.414720 0.060616
0.742123 0.435093 0.036999
0.870395 0.470206 0.045883
0.945450 0.521073 0.095184
0.019924 0.408054 0.156117
0.028287 0.427034 0.127934
0.070082 0.444345 0.077665
0.275396 0.484705 0.080225
0.445023 0.518587 0.109192
0.594948 0.533275 0.119044
0.756993 0.538289 0.088007
0.888032 0.550677 0.066026
0.966312 0.599670 0.099224
0.034470 0.501289 0.180702
0.043483 0.522522 0.151158
0.082628 0.537939 0.098291
0.266944 0.579358 0.089158
0.448898 0.618523 0.118030
0.626181 0.654858 0.150470
0.776009 0.662882 0.149471
0.907202 0.665417 0.121909
0.981491 0.682075 0.127823
0.048145 0.575146 0.186127
0.058579 0.598138 0.158114
0.103307 0.612479 0.119370
0.264553 0.650976 0.101185
0.452299 0.691616 0.127460
0.634827 0.729548 0.162602
0.784321 0.745280 0.182245
0.917992 0.753071 0.166668
0.988552 0.759464 0.160584
0.062866 0.625275 0.167999
0.076038 0.642170 0.147286
0.138275 0.657891 0.119339
0.272812 0.686767 0.107174
0.431656 0.721222 0.132644
0.596680 0.759281 0.164848
0.763649 0.794968 0.190407
0.902195 0.799892 0.192829
0.987183 0.800323 0.176575
0.006733 0.026314 0.220741
0.111191 0.034616 0.237587
0.253852 0.053642 0.206186
0.343541 0.076148 0.135941
0.413296 0.119187 0.118183
0.490059 0.181515 0.155573
0.579315 0.233149 0.193019
0.680716 0.282382 0.229367
0.766293 0.324577 0.257858
0.000000 0.117213 0.202478
0.025739 0.123585 0.192463
0.223155 0.150101 0.160069
0.357754 0.189211 0.157617
0.480568 0.228301 0.174463
0.602586 0.273305 0.206866
0.708205 0.316805 0.237747
0.789189 0.353376 0.264118
0.811565 0.403608 0.314895
0.000000 0.202964 0.209798
0.000111 0.203179 0.185216
0.142125 0.216961 0.177784
0.353760 0.252380 0.131610
0.535085 0.279685 0.100806
0.707358 0.299027 0.087836
0.793619 0.335242 0.154803
0.847640 0.373467 0.211338
0.864536 0.421266 0.273262
0.000000 0.275530 0.217975
0.000000 0.278393 0.191305
0.103182 0.288998 0.175208
0.282570 0.318433 0.177766
0.452796 0.341490 0.147158
0.663776 0.371160 0.103038
0.839415 0.385550 0.069274
0.911640 0.425168 0.118615
0.926861 0.474166 0.200261
0.000000 0.350672 0.235241
0.000909 0.361584 0.211246
0.042753 0.363013 0.177288
0.255785 0.396936 0.178176
0.419676 0.423504 0.185504
0.582104 0.429739 0.151316
0.802077 0.469993 0.099382
0.934409 0.511499 0.095007
0.952179 0.546742 0.181545
0.007332 0.444520 0.259542
0.017000 0.463669 0.233764
0.040444 0.461555 0.188387
0.227849 0.494012 0.175266
0.408500 0.527261 0.179460
0.578126 0.547331 0.176905
0.751370 0.547387 0.133844
0.923000 0.583494 0.117827
0.974615 0.624383 0.171970
0.024774 0.526402 0.262644
0.035334 0.551526 0.234174
0.063761 0.557451 0.191580
0.218820 0.590287 0.169887
0.409575 0.629255 0.171441
0.605985 0.667439 0.190184
0.768956 0.677299 0.183585
0.911398 0.675257 0.145049
0.987333 0.703314 0.186810
0.041192 0.591822 0.247712
0.052538 0.615417 0.215194
0.090158 0.629246 0.181481
0.233068 0.661669 0.160824
0.426962 0.703129 0.168696
0.620939 0.742417 0.197499
0.785315 0.764307 0.215701
0.923210 0.768331 0.189718
0.992921 0.775097 0.201733
0.055629 0.635006 0.214618
0.074836 0.654814 0.188276
0.137499 0.670648 0.166830
0.259577 0.695834 0.145677
0.417442 0.728319 0.158238
0.592779 0.767651 0.189979
0.761125 0.805139 0.213671
0.904750 0.812080 0.210387
0.990223 0.813778 0.196472
0.000176 0.013626 0.323273
0.048140 0.026453 0.353677
0.211111 0.035797 0.374891
0.378741 0.036396 0.370590
0.462444 0.093018 0.307373
0.516205 0.145015 0.254076
0.587897 0.189913 0.230280
0.671000 0.241014 0.232648
0.746208 0.305649 0.267601
0.000000 0.152186 0.337607
0.000000 0.149731 0.334822
0.137281 0.145755 0.340627
0.362563 0.148646 0.321232
0.483291 0.167456 0.226444
0.577927 0.210113 0.198955
0.671036 0.273511 0.231610
0.751939 0.314949 0.256051
0.788679 0.369715 0.311323
0.000000 0.244242 0.347939
0.000000 0.248491 0.341796
0.062646 0.233976 0.324983
0.310460 0.259018 0.292406
0.433163 0.293179 0.282126
0.579074 0.336783 0.293126
0.726949 0.368835 0.294900
0.811264 0.402406 0.313606
0.836224 0.472647 0.391657
0.000000 0.319446 0.358384
0.000000 0.334446 0.351604
0.010211 0.313581 0.320612
0.223602 0.330723 0.320576
0.433622 0.362490 0.284025
0.661393 0.393653 0.253106
0.837468 0.400189 0.199359
0.893015 0.436414 0.241534
0.904366 0.509265 0.350299
0.000000 0.391011 0.368134
0.000000 0.413255 0.357803
0.000355 0.389878 0.314658
0.188536 0.406498 0.312343
0.369533 0.432119 0.314091
0.566272 0.456749 0.288548
0.810508 0.498839 0.243175
0.941676 0.528091 0.190995
0.952591 0.574963 0.299053
0.000000 0.478661 0.374985
0.000783 0.501833 0.356578
0.008254 0.488881 0.311768
0.148169 0.501937 0.297336
0.344397 0.532704 0.298946
0.538789 0.562327 0.308294
0.732911 0.570831 0.275482
0.933582 0.611230 0.226608
0.975216 0.651107 0.286498
0.009438 0.554448 0.362030
0.020841 0.577441 0.335415
0.033930 0.582176 0.294051
0.144504 0.601906 0.279869
0.338528 0.635018 0.280741
0.552944 0.674766 0.296590
0.738297 0.694401 0.298521
0.900769 0.688489 0.245008
0.988699 0.725965 0.290691
0.029072 0.612389 0.333289
0.040068 0.630986 0.298178
0.059036 0.645205 0.260206
0.180042 0.675361 0.253219
0.379813 0.712272 0.262763
0.582081 0.753349 0.289474
0.768230 0.786170 0.310403
0.913876 0.785581 0.274271
0.994080 0.792756 0.284189
0.045380 0.649254 0.290214
0.056664 0.665938 0.261689
0.105114 0.682951 0.232300
0.243182 0.709188 0.218866
0.401901 0.739647 0.220139
0.577021 0.776987 0.245534
0.747995 0.815847 0.280870
0.899433 0.829424 0.285126
0.992142 0.829178 0.260842
0.002323 0.046387 0.384831
0.026402 0.075236 0.435223
0.119450 0.071548 0.448189
0.292036 0.079990 0.468990
0.446617 0.082632 0.468960
0.546299 0.113875 0.433783
0.620517 0.172109 0.379892
0.689219 0.220095 0.333311
0.748146 0.257462 0.304600
0.000000 0.176964 0.432067
0.000005 0.177893 0.434017
0.046386 0.164106 0.442485
0.252783 0.172412 0.461083
0.431180 0.174900 0.459653
0.585715 0.192430 0.394714
0.680667 0.227051 0.313323
0.744825 0.265313 0.277782
0.776867 0.322797 0.316374
0.000000 0.265239 0.441846
0.000000 0.275282 0.445497
0.001618 0.259548 0.444399
0.193912 0.262452 0.450838
0.416461 0.261102 0.431704
0.566461 0.272067 0.341614
0.706061 0.302307 0.293806
0.783399 0.360533 0.316019
0.799617 0.420236 0.379280
0.000000 0.345076 0.456883
0.000000 0.366441 0.462246
0.000000 0.352892 0.452948
0.137176 0.343939 0.440229
0.395471 0.366467 0.413374
0.539264 0.397888 0.391266
0.710009 0.444667 0.395735
0.836231 0.471665 0.390291
0.861905 0.564851 0.494868
0.000000 0.420822 0.472649
0.000000 0.448313 0.473231
0.000000 0.446408 0.460262
0.092209 0.428159 0.434467
0.314890 0.446997 0.438243
0.550162 0.483998 0.405396
0.807765 0.522787 0.365762
0.932792 0.539002 0.319530
0.937283 0.613623 0.451397
0.000000 0.505883 0.476915
0.000000 0.531296 0.466132
0.000000 0.540842 0.447205
0.044926 0.527054 0.416136
0.265855 0.545524 0.415906
0.484593 0.574603 0.420299
0.719699 0.601992 0.394052
0.938125 0.638417 0.340191
0.972099 0.682531 0.409317
0.000003 0.580459 0.459592
0.003588 0.604706 0.438548
0.012490 0.620582 0.415433
0.038150 0.621009 0.383094
0.237927 0.644615 0.387344
0.489229 0.682972 0.399848
0.700225 0.712692 0.413990
0.882893 0.713238 0.371699
0.985351 0.751209 0.405039
0.013820 0.637785 0.426993
0.024960 0.652636 0.394159
0.033785 0.663739 0.364800
0.072553 0.681810 0.330812
0.298274 0.718813 0.354619
0.524020 0.760602 0.377216
0.727035 0.798540 0.408282
0.889670 0.806184 0.394289
0.993054 0.809435 0.383279
0.031963 0.668548 0.378548
0.040898 0.679987 0.347715
0.049769 0.696057 0.340578
0.168713 0.716244 0.291818
0.375528 0.751038 0.295999
0.550064 0.786604 0.314058
0.725115 0.825927 0.359277
0.884135 0.847681 0.385556
0.991665 0.848865 0.353023
0.008850 0.074661 0.432221
0.027790 0.120504 0.525284
0.047970 0.116547 0.528621
0.209602 0.107399 0.553837
0.363564 0.115486 0.570610
0.504637 0.116469 0.571253
0.633621 0.135055 0.545776
0.715618 0.197905 0.492699
0.769714 0.246933 0.438476
0.000000 0.202084 0.527632
0.000000 0.204841 0.531433
0.001057 0.199073 0.534815
0.162908 0.182671 0.559237
0.343198 0.194707 0.574615
0.493116 0.200434 0.576401
0.676337 0.213177 0.531268
0.766629 0.252002 0.444581
0.786861 0.303448 0.422668
0.000000 0.286888 0.538231
0.000000 0.296597 0.543680
0.000000 0.290499 0.545090
0.088983 0.270214 0.561021
0.311895 0.283659 0.576435
0.485960 0.287221 0.574435
0.681468 0.296546 0.498152
0.776715 0.308895 0.400636
0.794327 0.369217 0.420521
0.000000 0.366114 0.552919
0.000000 0.386897 0.560697
0.000000 0.383989 0.562192
0.034535 0.358962 0.564743
0.273377 0.368242 0.572743
0.501011 0.368237 0.547189
0.677445 0.373453 0.438964
0.790527 0.390409 0.383967
0.814272 0.472094 0.460579
0.000000 0.439209 0.567489
0.000000 0.469064 0.575908
0.000000 0.477282 0.577766
0.003371 0.459773 0.568375
0.215386 0.459591 0.563599
0.506950 0.483958 0.530355
0.681677 0.528656 0.509026
0.846855 0.576713 0.514927
0.881325 0.662918 0.610352
0.000000 0.526945 0.580377
0.000000 0.559394 0.582571
0.000000 0.576783 0.580634
0.000000 0.571200 0.563163
0.120201 0.566353 0.550404
0.414443 0.592034 0.559349
0.704000 0.635071 0.522984
0.935941 0.664302 0.470330
0.957142 0.730079 0.576580
0.000000 0.609383 0.575653
0.000000 0.636470 0.563747
0.000000 0.655225 0.551236
0.000237 0.658602 0.530909
0.079269 0.666403 0.520044
0.402526 0.698961 0.535747
0.635621 0.729510 0.546357
0.870056 0.751114 0.513048
0.975513 0.786488 0.550533
0.000008 0.668262 0.546412
0.002556 0.685022 0.522962
0.009947 0.695678 0.499950
0.019864 0.703181 0.467351
0.115570 0.725820 0.457290
0.435478 0.769179 0.492939
0.654880 0.811260 0.523752
0.850583 0.834368 0.539360
0.984707 0.834219 0.513109
0.010437 0.698532 0.500717
0.019786 0.707205 0.471615
0.026436 0.715855 0.452404
0.042587 0.723642 0.411638
0.225685 0.752709 0.386894
0.492571 0.795628 0.402399
0.685108 0.835739 0.439415
0.864271 0.873489 0.495617
0.985367 0.875015 0.477982
0.016030 0.098743 0.477436
0.035928 0.150586 0.614983
0.050064 0.147309 0.617880
0.092122 0.139143 0.625465
0.289846 0.139797 0.655823
0.425306 0.144036 0.669527
0.579416 0.144492 0.674442
0.713782 0.157139 0.660575
0.790718 0.221130 0.618305
0.000447 0.218189 0.621568
0.000590 0.219564 0.624351
0.002806 0.214014 0.627483
0.037229 0.204314 0.636898
0.272435 0.201465 0.666413
0.418544 0.210142 0.680077
0.586813 0.215822 0.685408
0.748269 0.224026 0.659216
0.809641 0.282081 0.604752
0.000000 0.297378 0.628997
0.000000 0.309793 0.634276
0.000000 0.303895 0.637624
0.001225 0.289287 0.646053
0.229455 0.281795 0.676952
0.404687 0.294107 0.691612
0.585746 0.301920 0.697789
0.773005 0.304865 0.648888
0.820679 0.357966 0.596085
0.000000 0.375358 0.641222
0.000000 0.394294 0.649041
0.000000 0.390143 0.651547
0.000000 0.380393 0.656849
0.176965 0.367153 0.687377
0.391197 0.382779 0.701081
0.602659 0.388641 0.700553
0.793051 0.389182 0.621268
0.829080 0.445406 0.586959
0.000000 0.448234 0.655655
0.000000 0.475918 0.664710
0.000000 0.483021 0.668640
0.000000 0.480921 0.673776
0.069011 0.468095 0.693515
0.362633 0.488971 0.705757
0.636186 0.482116 0.680554
0.799826 0.481210 0.563832
0.835419 0.559351 0.585718
0.000000 0.536727 0.673573
0.000000 0.569987 0.683866
0.000000 0.589818 0.688940
0.000000 0.592284 0.691978
0.017796 0.589210 0.693691
0.319113 0.608557 0.699765
0.653945 0.636212 0.667480
0.833009 0.680748 0.651202
0.897533 0.763960 0.733449
0.000000 0.626691 0.687035
0.000000 0.661261 0.689796
0.000000 0.684511 0.686644
0.000000 0.688799 0.686482
0.005645 0.698522 0.675388
0.269057 0.718215 0.681870
0.563040 0.750235 0.696408
0.856172 0.788535 0.662200
0.952319 0.830182 0.717862
0.000000 0.698861 0.677705
0.000000 0.718314 0.665997
0.000000 0.729475 0.649771
0.000000 0.733168 0.644170
0.006228 0.750186 0.619266
0.271427 0.783154 0.631980
0.565783 0.826754 0.666955
0.792858 0.861159 0.688900
0.960486 0.872806 0.676274
0.000000 0.730804 0.640541
0.000000 0.738298 0.618748
0.001082 0.745486 0.593143
0.006390 0.754521 0.571577
0.024031 0.760958 0.531693
0.311339 0.797174 0.521586
0.598790 0.844712 0.544656
0.808775 0.886580 0.593307
0.959507 0.907772 0.630303
0.021942 0.123489 0.528267
0.077688 0.164989 0.683919
0.092199 0.166426 0.692305
0.107040 0.164983 0.694722
0.220539 0.160591 0.712860
0.364010 0.168689 0.735006
0.495109 0.173717 0.750158
0.657078 0.176439 0.759772
0.780754 0.186798 0.757095
0.019328 0.218467 0.692302
0.025199 0.218331 0.695796
0.035860 0.214610 0.698986
0.051015 0.209899 0.703176
0.195473 0.207544 0.726077
0.365867 0.216061 0.748511
0.511036 0.222723 0.763459
0.679572 0.226543 0.771205
0.796557 0.238199 0.758333
0.000000 0.293396 0.700405
0.000000 0.303975 0.705509
0.000016 0.298661 0.708645
0.000167 0.292703 0.713326
0.138313 0.274557 0.741326
0.345831 0.285277 0.765446
0.511325 0.294023 0.780725
0.691900 0.299787 0.786908
0.816336 0.314001 0.763716
0.000000 0.373699 0.706925
0.000000 0.390593 0.714932
0.000000 0.386419 0.717999
0.000000 0.380683 0.722353
0.061469 0.353158 0.756869
0.318842 0.366076 0.782953
0.518641 0.377851 0.797297
0.706195 0.381542 0.801961
0.838560 0.404871 0.769079
0.000000 0.447937 0.725296
0.000000 0.474876 0.736526
0.000000 0.480801 0.740764
0.000000 0.477600 0.744341
0.009428 0.457840 0.770998
0.270394 0.470958 0.801038
0.524560 0.490446 0.815601
0.738910 0.484691 0.813648
0.865459 0.536617 0.778080
0.000000 0.536258 0.748132
0.000000 0.564714 0.758951
0.000000 0.582577 0.764884
0.000000 0.582826 0.768939
0.000000 0.580617 0.789258
0.207061 0.597320 0.815203
0.512057 0.625332 0.830920
0.783899 0.613011 0.810788
0.875465 0.676758 0.767393
0.000000 0.626158 0.770296
0.000000 0.660783 0.781461
0.000000 0.687505 0.787421
0.000000 0.693907 0.792132
0.000000 0.706193 0.802335
0.144039 0.728884 0.818720
0.483890 0.763284 0.833933
0.805726 0.789931 0.808901
0.907684 0.853352 0.847805
0.000000 0.708690 0.786331
0.000000 0.736640 0.790570
0.000000 0.753178 0.790394
0.000000 0.767388 0.791073
0.000000 0.781925 0.792166
0.138167 0.806036 0.800070
0.480517 0.843755 0.817984
0.735126 0.880773 0.836410
0.918428 0.912526 0.841330
0.000000 0.759148 0.780762
0.000000 0.769963 0.773293
0.000000 0.779932 0.770724
0.000000 0.790265 0.764894
0.001148 0.805431 0.755715
0.250179 0.839240 0.755169
0.586445 0.884903 0.768534
0.825379 0.923652 0.792130
0.958725 0.940491 0.788681
0.027187 0.141079 0.577446
0.110329 0.175272 0.713801
0.145480 0.199704 0.750443
0.156798 0.199559 0.751697
0.173874 0.199747 0.753582
0.343438 0.203950 0.774037
0.461361 0.211630 0.790423
0.601080 0.227556 0.808494
0.740330 0.234344 0.820618
0.065086 0.225158 0.740721
0.076452 0.229926 0.748309
0.091026 0.229551 0.750766
0.115168 0.228780 0.754812
0.151795 0.227535 0.760749
0.342039 0.232481 0.783475
0.468191 0.243358 0.800645
0.611128 0.259609 0.819024
0.748677 0.265099 0.828728
0.003919 0.288324 0.744348
0.003758 0.297425 0.746767
0.016028 0.291641 0.751067
0.041636 0.283273 0.757861
0.083446 0.274247 0.767472
0.309894 0.281099 0.797998
0.460481 0.296239 0.815844
0.609976 0.312215 0.834350
0.755440 0.316719 0.843107
0.000000 0.361516 0.744805
0.000000 0.375524 0.750843
0.000000 0.368967 0.756852
0.000050 0.358061 0.766055
0.009572 0.345796 0.777806
0.263596 0.341970 0.814735
0.460621 0.361545 0.834721
0.615378 0.377275 0.851530
0.765277 0.379411 0.859604
0.000000 0.429321 0.750208
0.000000 0.447117 0.760274
0.000000 0.450816 0.768637
0.000000 0.442421 0.779021
0.000000 0.432572 0.794160
0.184442 0.429395 0.836938
0.463610 0.460215 0.860988
0.634848 0.473495 0.874426
0.781340 0.476526 0.882101
0.000000 0.507602 0.772671
0.000000 0.527998 0.785081
0.000000 0.548840 0.800157
0.000000 0.548731 0.811795
0.000000 0.545701 0.826872
0.173420 0.555269 0.866753
0.474972 0.586805 0.889176
0.678851 0.609417 0.902730
0.816898 0.615389 0.905001
0.000000 0.588797 0.795656
0.000000 0.612237 0.805944
0.000000 0.642139 0.826744
0.000000 0.671670 0.846026
0.000000 0.682511 0.860819
0.185254 0.708913 0.899088
0.511857 0.744372 0.918325
0.723807 0.769766 0.929662
0.862687 0.786480 0.926259
0.000000 0.670902 0.822922
0.000000 0.695446 0.834936
0.000000 0.722353 0.850424
0.000000 0.753727 0.869026
0.000000 0.787116 0.890613
0.222798 0.822395 0.918703
0.585705 0.866075 0.934778
0.778935 0.898457 0.943388
0.911672 0.925675 0.948586
0.000000 0.737454 0.845554
0.000000 0.749008 0.850690
0.000000 0.765640 0.860248
0.000000 0.788180 0.873561
0.000000 0.814955 0.890448
0.065676 0.851849 0.913963
0.535392 0.900637 0.929238
0.813262 0.945476 0.940085
0.968716 0.975208 0.933006
0.034393 0.150574 0.611786
0.127789 0.182686 0.730110
0.109497 0.202987 0.751312
0.123146 0.202641 0.752983
0.142166 0.202286 0.755112
0.228138 0.203468 0.764553
0.403755 0.206100 0.785797
0.540368 0.204876 0.798542
0.681152 0.213440 0.814209
0.053467 0.235634 0.748100
0.048107 0.233762 0.747732
0.064836 0.231449 0.751166
0.093307 0.229236 0.756670
0.134768 0.227093 0.763941
0.235919 0.227498 0.775388
0.412152 0.231258 0.795463
0.554271 0.232274 0.808458
0.697132 0.244278 0.825016
0.000000 0.298836 0.739555
0.000000 0.296043 0.743052
0.000609 0.287510 0.747826
0.017192 0.278164 0.755929
0.077060 0.272072 0.767395
0.204719 0.268088 0.787843
0.408171 0.274101 0.808897
0.554853 0.277790 0.822890
0.708160 0.295975 0.841415
0.000000 0.368717 0.739944
0.000000 0.372798 0.746721
0.000000 0.362326 0.752606
0.001069 0.347771 0.762261
0.021066 0.329986 0.773937
0.145941 0.314382 0.798052
0.408468 0.328402 0.826168
0.566286 0.338525 0.842641
0.723217 0.360092 0.860794
0.000000 0.434921 0.750519
0.000000 0.448662 0.760021
0.000000 0.441624 0.764305
0.000000 0.427919 0.773483
0.000000 0.413085 0.789093
0.043812 0.392763 0.814758
0.401009 0.416515 0.853081
0.594721 0.434914 0.871836
0.748795 0.454101 0.886719
0.000000 0.506264 0.772751
0.000000 0.522820 0.780530
0.000000 0.531723 0.793203
0.000000 0.525109 0.800755
0.000000 0.514360 0.814955
0.020021 0.504963 0.842055
0.402550 0.534475 0.886371
0.647786 0.569826 0.907944
0.786110 0.580567 0.917824
0.000000 0.576050 0.790985
0.000000 0.595903 0.797367
0.000000 0.615698 0.811531
0.000000 0.638640 0.835069
0.000000 0.644371 0.851085
0.033652 0.654930 0.882455
0.436390 0.699160 0.925301
0.692172 0.727702 0.942298
0.834732 0.737534 0.951057
0.000000 0.649620 0.813728
0.000000 0.673263 0.826934
0.000000 0.699558 0.844459
0.000000 0.730786 0.864477
0.000000 0.763617 0.890490
0.016527 0.796601 0.923633
0.485848 0.843424 0.954225
0.758696 0.873276 0.968807
0.902676 0.890801 0.977066
0.000000 0.722046 0.844696
0.000000 0.732506 0.851135
0.000000 0.747039 0.861030
0.000000 0.768837 0.874218
0.000000 0.794022 0.892731
0.000000 0.830028 0.920917
0.275139 0.882164 0.955010
0.711437 0.942440 0.974785
0.986786 0.987305 0.983307
