CUBE/3dlut_lib/b.cube
# Copyright: (C) Copyright 2010-2020 by IWLTBAP SAS
# Cannot be resold, shared or otherwise redistributed
# Website: https://luts.iwltbap.com
TITLE "IWLTBAP 8120 (Rec.709, sRGB, DCI-P3)"
LUT_3D_SIZE 33
0.000000 0.000000 0.000000
0.014368 0.003340 0.003311
0.050280 0.013319 0.005907
0.084586 0.026782 0.006184
0.113312 0.041244 0.013485
0.138289 0.055944 0.025058
0.163145 0.070121 0.036902
0.188831 0.082215 0.048936
0.214219 0.092506 0.058327
0.241506 0.100611 0.062872
0.271139 0.107734 0.063950
0.298858 0.115212 0.065868
0.322239 0.126400 0.075492
0.344181 0.139914 0.089477
0.367170 0.152952 0.102305
0.390387 0.165377 0.113766
0.412567 0.177658 0.125229
0.435420 0.189582 0.135719
0.459184 0.201508 0.145251
0.481379 0.213769 0.155625
0.502754 0.225818 0.166218
0.526081 0.237929 0.176363
0.552087 0.250564 0.187042
0.578990 0.262868 0.197827
0.605644 0.274452 0.207916
0.633290 0.285491 0.216347
0.659071 0.296198 0.223690
0.685362 0.307038 0.231072
0.710835 0.317765 0.238396
0.734524 0.327984 0.245606
0.756971 0.337508 0.252226
0.775994 0.346188 0.258775
0.791870 0.353668 0.264008
0.000000 0.020606 0.004405
0.010158 0.026353 0.003735
0.038811 0.036187 0.003182
0.073741 0.048644 0.002052
0.104133 0.060443 0.005270
0.136142 0.069663 0.011713
0.169536 0.078689 0.018075
0.200920 0.087388 0.023242
0.231757 0.094694 0.026619
0.261655 0.100586 0.027321
0.290607 0.106270 0.026594
0.317324 0.113408 0.029105
0.341651 0.124977 0.043627
0.365016 0.138333 0.061151
0.387322 0.151668 0.076749
0.408078 0.164928 0.091668
0.428132 0.178028 0.106027
0.448430 0.191366 0.120120
0.468678 0.205048 0.134014
0.487932 0.218726 0.147905
0.506560 0.232116 0.161736
0.526757 0.245469 0.175463
0.551011 0.258830 0.188450
0.578623 0.271260 0.199351
0.604972 0.283085 0.209720
0.632640 0.294579 0.218177
0.660688 0.304997 0.224649
0.687167 0.315697 0.231953
0.712616 0.325876 0.239220
0.737302 0.335659 0.246075
0.760896 0.344218 0.251542
0.780262 0.352931 0.258528
0.796452 0.361384 0.265279
0.000000 0.046219 0.003717
0.003398 0.052320 0.003335
0.034258 0.058484 0.003149
0.066922 0.065296 0.005063
0.094609 0.073651 0.007365
0.125836 0.083429 0.011747
0.159269 0.092638 0.013241
0.190989 0.101706 0.014875
0.223553 0.109685 0.014839
0.258745 0.115535 0.012091
0.291249 0.119801 0.008786
0.321988 0.124649 0.006723
0.353385 0.131984 0.006368
0.381760 0.142281 0.020334
0.405317 0.153806 0.040326
0.426409 0.166047 0.058956
0.447117 0.179155 0.077069
0.467933 0.192441 0.093477
0.488171 0.205894 0.109717
0.507227 0.219311 0.125970
0.526593 0.232329 0.140909
0.549142 0.245505 0.155044
0.574164 0.258805 0.168647
0.597819 0.272327 0.182735
0.621422 0.285266 0.195680
0.645227 0.298246 0.208193
0.669860 0.310030 0.218273
0.693858 0.321966 0.228398
0.717269 0.332857 0.237644
0.740989 0.343091 0.245853
0.765384 0.352514 0.252870
0.784983 0.361812 0.259946
0.802265 0.370102 0.266607
0.000000 0.067850 0.011212
0.003546 0.073273 0.010938
0.028754 0.079378 0.010579
0.060827 0.084151 0.012434
0.089268 0.089106 0.014223
0.115499 0.096824 0.015242
0.148271 0.106263 0.015812
0.181862 0.114726 0.015191
0.216567 0.122503 0.011757
0.252180 0.129832 0.008254
0.284542 0.136720 0.005103
0.315292 0.144126 0.003946
0.347713 0.152729 0.002158
0.380004 0.161450 0.008666
0.410115 0.169661 0.018579
0.438631 0.177991 0.028889
0.463961 0.187721 0.044440
0.485916 0.198762 0.062894
0.506438 0.210434 0.081208
0.526460 0.222481 0.099400
0.548234 0.234536 0.115728
0.572647 0.246983 0.130194
0.597507 0.259745 0.144542
0.621446 0.272524 0.158698
0.644314 0.285511 0.173376
0.667959 0.297964 0.186390
0.691704 0.310808 0.199655
0.714735 0.321643 0.209821
0.736278 0.332887 0.220895
0.758968 0.343458 0.229939
0.779133 0.354331 0.240218
0.796891 0.364644 0.249963
0.812959 0.374262 0.258839
0.000000 0.088154 0.019363
0.000451 0.093091 0.017908
0.018272 0.098801 0.017739
0.048425 0.103326 0.017551
0.079386 0.108206 0.019455
0.110184 0.113083 0.021815
0.140442 0.119339 0.021278
0.173729 0.128613 0.019760
0.209142 0.137264 0.013989
0.245690 0.144234 0.007628
0.278467 0.151177 0.003240
0.310256 0.159056 0.001648
0.343759 0.168028 0.001007
0.376341 0.177929 0.006396
0.406605 0.187793 0.014728
0.436241 0.197127 0.023574
0.465683 0.206129 0.032221
0.493894 0.214246 0.041091
0.519985 0.221849 0.052962
0.544433 0.230525 0.068545
0.569344 0.240779 0.086363
0.595190 0.252052 0.103022
0.620675 0.263383 0.117869
0.645297 0.274907 0.132155
0.668618 0.286931 0.146345
0.692154 0.298948 0.160457
0.715041 0.310554 0.174685
0.736073 0.322106 0.189054
0.757376 0.332964 0.200135
0.780371 0.342561 0.207947
0.797392 0.353732 0.220276
0.813932 0.363200 0.228973
0.827591 0.373111 0.239708
0.000000 0.106440 0.026570
0.000000 0.111494 0.023921
0.005288 0.116280 0.022736
0.032000 0.120901 0.021866
0.064501 0.126351 0.021845
0.101551 0.132318 0.024779
0.133408 0.137349 0.027134
0.165942 0.143152 0.025590
0.201326 0.151976 0.020079
0.238799 0.160164 0.012130
0.271878 0.167557 0.005781
0.304353 0.175258 0.001915
0.339291 0.183549 0.000940
0.373148 0.192450 0.004775
0.404201 0.201486 0.010805
0.434260 0.210521 0.018788
0.464153 0.219500 0.027672
0.493041 0.228421 0.036593
0.520990 0.237139 0.046031
0.550891 0.245029 0.054706
0.584058 0.252755 0.062345
0.615968 0.261637 0.071530
0.643431 0.271117 0.085318
0.668283 0.280916 0.100410
0.692239 0.291368 0.116175
0.716018 0.301926 0.131350
0.737947 0.312422 0.146763
0.758355 0.323313 0.162204
0.780097 0.334072 0.175338
0.799654 0.344201 0.186734
0.815336 0.354245 0.198049
0.831044 0.362790 0.206281
0.843305 0.372997 0.219170
0.000000 0.123850 0.029792
0.000000 0.128647 0.026330
0.001148 0.133265 0.024745
0.015836 0.137567 0.023542
0.046434 0.143603 0.022006
0.084497 0.150229 0.023147
0.122822 0.156667 0.026678
0.158532 0.162632 0.029042
0.193500 0.167602 0.026131
0.231236 0.175926 0.019914
0.264731 0.184861 0.014745
0.298325 0.192136 0.009418
0.334453 0.198961 0.004815
0.369505 0.206470 0.004568
0.401724 0.214671 0.007836
0.432289 0.223278 0.014464
0.462268 0.232248 0.022965
0.491298 0.241516 0.032401
0.519822 0.250419 0.042271
0.551189 0.258315 0.050391
0.586113 0.265767 0.056681
0.620957 0.273669 0.061761
0.654401 0.281640 0.066657
0.685094 0.289424 0.072502
0.712599 0.297855 0.081737
0.736948 0.306933 0.095062
0.759637 0.316518 0.111589
0.781771 0.326580 0.127771
0.802448 0.336004 0.141523
0.819376 0.346050 0.156821
0.833812 0.356010 0.172063
0.846834 0.365003 0.184001
0.858824 0.374901 0.196982
0.000000 0.141717 0.032085
0.000000 0.145847 0.027555
0.000150 0.150197 0.024797
0.006826 0.154643 0.023072
0.031145 0.160440 0.019624
0.067211 0.167465 0.018115
0.106617 0.174521 0.021302
0.147519 0.181746 0.026941
0.186413 0.188418 0.030126
0.223798 0.193117 0.027773
0.258000 0.199940 0.023771
0.293470 0.207400 0.018566
0.330453 0.214312 0.013193
0.365695 0.221368 0.010467
0.398605 0.228921 0.010591
0.430150 0.236951 0.013577
0.460897 0.245407 0.019324
0.490145 0.254259 0.027610
0.518708 0.262888 0.037231
0.550602 0.270698 0.046348
0.586006 0.278339 0.053947
0.621459 0.286351 0.058524
0.656619 0.293936 0.060671
0.689484 0.300710 0.062811
0.720482 0.307725 0.065952
0.750226 0.315031 0.070761
0.777088 0.323255 0.080710
0.800495 0.331911 0.093345
0.819676 0.340712 0.108130
0.836763 0.350281 0.123290
0.850222 0.359764 0.143818
0.862388 0.369089 0.158032
0.873737 0.380152 0.173053
0.000000 0.159218 0.035340
0.000000 0.162736 0.029707
0.000000 0.165989 0.024590
0.003222 0.170077 0.022208
0.022534 0.175799 0.018578
0.055037 0.182958 0.015353
0.093507 0.190280 0.017376
0.135403 0.198133 0.023455
0.178501 0.206505 0.030029
0.216954 0.211496 0.032903
0.251365 0.216359 0.031897
0.288144 0.222357 0.027687
0.326096 0.229799 0.023020
0.361550 0.237181 0.019683
0.394686 0.244406 0.016967
0.427265 0.251729 0.015671
0.459278 0.259441 0.018410
0.489052 0.267332 0.025143
0.517752 0.274908 0.033415
0.550199 0.282552 0.041657
0.586391 0.290715 0.049493
0.622161 0.299273 0.055373
0.657331 0.306926 0.057618
0.690679 0.313558 0.058909
0.723198 0.320442 0.060486
0.755583 0.327059 0.062312
0.785924 0.334012 0.066009
0.811650 0.340064 0.071453
0.831790 0.347126 0.082819
0.848507 0.355683 0.098533
0.862560 0.365020 0.119270
0.875122 0.375965 0.136681
0.886917 0.389328 0.155372
0.000000 0.176791 0.041190
0.000000 0.181054 0.035979
0.000000 0.183913 0.030717
0.000863 0.186763 0.026463
0.014762 0.192475 0.023285
0.043900 0.199867 0.019402
0.082722 0.207433 0.018572
0.125118 0.215481 0.023139
0.169968 0.224092 0.030247
0.212772 0.231960 0.036412
0.247533 0.236823 0.039270
0.282828 0.241024 0.037639
0.321293 0.246378 0.033071
0.357597 0.253250 0.028747
0.390977 0.260597 0.024830
0.423973 0.267208 0.021321
0.456946 0.273640 0.020879
0.487825 0.280480 0.024405
0.517191 0.287391 0.029276
0.550103 0.294678 0.034660
0.586972 0.303111 0.042743
0.622985 0.312195 0.051129
0.657979 0.320207 0.054276
0.692159 0.327061 0.054982
0.725594 0.334039 0.057062
0.758448 0.340596 0.058987
0.790070 0.346753 0.061326
0.816861 0.351367 0.063287
0.838989 0.356881 0.070939
0.857190 0.363788 0.082155
0.872591 0.372501 0.099431
0.885735 0.384539 0.118958
0.897568 0.400294 0.140887
0.000000 0.195930 0.050779
0.000000 0.201355 0.046269
0.000000 0.204279 0.042313
0.000650 0.206227 0.036327
0.008753 0.210617 0.031923
0.034211 0.217807 0.028066
0.073137 0.225475 0.024710
0.116163 0.233518 0.026312
0.161709 0.242460 0.032269
0.206213 0.251681 0.039600
0.245104 0.258894 0.045264
0.279411 0.262932 0.047371
0.315808 0.266886 0.044653
0.352900 0.271303 0.039104
0.387648 0.276627 0.033732
0.421076 0.282331 0.029141
0.454277 0.288110 0.026324
0.486001 0.294368 0.025587
0.516470 0.300894 0.026020
0.550030 0.307916 0.028625
0.587339 0.316123 0.035763
0.623856 0.325128 0.044276
0.659068 0.333276 0.047093
0.693472 0.340442 0.048779
0.727758 0.347307 0.053295
0.761260 0.353774 0.055498
0.793106 0.359156 0.056265
0.820585 0.363516 0.058445
0.843237 0.368669 0.066456
0.862404 0.375372 0.076427
0.879959 0.383872 0.087165
0.894726 0.397183 0.102776
0.907103 0.414475 0.127033
0.000000 0.216000 0.062351
0.000136 0.221309 0.058288
0.000891 0.223993 0.054218
0.002379 0.225872 0.048086
0.006444 0.228945 0.042136
0.025821 0.235223 0.037800
0.060819 0.243090 0.033211
0.105004 0.251594 0.032052
0.154675 0.261086 0.036341
0.199424 0.270434 0.043096
0.240412 0.278707 0.049662
0.278656 0.285268 0.054632
0.313503 0.288591 0.054528
0.348375 0.291152 0.049923
0.383937 0.294616 0.044136
0.418572 0.298388 0.038241
0.452068 0.303381 0.033778
0.483836 0.309460 0.030622
0.515185 0.315654 0.027673
0.549834 0.322363 0.026816
0.587413 0.329926 0.030786
0.624689 0.338021 0.036157
0.660677 0.345657 0.037393
0.694984 0.353178 0.041749
0.729640 0.360198 0.048132
0.764101 0.366148 0.049999
0.796001 0.371165 0.049466
0.824129 0.375783 0.053919
0.847004 0.381828 0.062565
0.867126 0.389663 0.071241
0.885855 0.398603 0.079491
0.901419 0.413336 0.094370
0.915353 0.431210 0.115800
0.000210 0.235211 0.073418
0.001119 0.240340 0.069652
0.002543 0.243023 0.064910
0.004292 0.245023 0.059399
0.007313 0.247756 0.052929
0.019604 0.252680 0.046495
0.049083 0.260235 0.041728
0.094807 0.269607 0.038632
0.148358 0.279545 0.041245
0.193599 0.288637 0.046854
0.234750 0.296966 0.053121
0.276160 0.305235 0.059117
0.312266 0.309596 0.061965
0.345252 0.312336 0.060513
0.379594 0.315407 0.055973
0.415464 0.318403 0.049750
0.450073 0.321236 0.043507
0.481769 0.325467 0.038373
0.513370 0.331496 0.034122
0.549091 0.337626 0.030182
0.587747 0.344051 0.029269
0.625382 0.351036 0.030639
0.661961 0.357948 0.029771
0.696818 0.365429 0.034848
0.731787 0.372439 0.041529
0.766845 0.378314 0.042410
0.798595 0.383949 0.042644
0.827671 0.389771 0.049186
0.851375 0.397267 0.057457
0.872384 0.406062 0.064494
0.891463 0.415648 0.073926
0.907467 0.430724 0.090114
0.921905 0.448440 0.108791
0.001423 0.254482 0.084056
0.003034 0.260270 0.080513
0.004495 0.262805 0.075325
0.006193 0.264667 0.070130
0.009539 0.267089 0.063107
0.017697 0.271203 0.055262
0.040587 0.277769 0.048994
0.085287 0.287574 0.044401
0.138927 0.297832 0.044381
0.186883 0.307175 0.048760
0.229108 0.315767 0.054960
0.271333 0.324319 0.061525
0.311129 0.331337 0.067325
0.343684 0.334463 0.069514
0.375893 0.337113 0.067569
0.411826 0.340404 0.062476
0.447538 0.342780 0.055910
0.480078 0.344683 0.049082
0.511940 0.348162 0.043058
0.548417 0.353196 0.037084
0.588169 0.358364 0.032013
0.626022 0.364280 0.029512
0.662901 0.370517 0.026616
0.698944 0.377544 0.029319
0.734297 0.384702 0.034416
0.769457 0.391459 0.034724
0.801716 0.398450 0.036897
0.831824 0.406089 0.044385
0.856157 0.414426 0.052096
0.877796 0.423722 0.058643
0.897314 0.433529 0.070156
0.913644 0.448760 0.086489
0.928036 0.466023 0.104419
0.003471 0.274416 0.094797
0.005225 0.280625 0.091421
0.006613 0.283240 0.086350
0.008384 0.284399 0.079807
0.011622 0.286547 0.072230
0.017738 0.290321 0.064274
0.035659 0.296179 0.056108
0.074056 0.305292 0.049564
0.126650 0.315691 0.047727
0.176614 0.325409 0.050933
0.222440 0.334470 0.056914
0.266289 0.343108 0.063664
0.308280 0.351453 0.070437
0.344026 0.357181 0.075392
0.375214 0.359392 0.076282
0.408945 0.361693 0.073167
0.444524 0.364857 0.068041
0.478059 0.366621 0.061654
0.511041 0.367746 0.054407
0.548011 0.369653 0.046183
0.588331 0.372957 0.038285
0.626734 0.378202 0.032907
0.664151 0.384023 0.028277
0.700952 0.391004 0.027370
0.736938 0.398896 0.029035
0.772036 0.406958 0.029250
0.805551 0.415442 0.033667
0.836102 0.423765 0.040881
0.860986 0.432375 0.048102
0.883207 0.441818 0.055598
0.903352 0.452321 0.068669
0.919723 0.467300 0.082969
0.934183 0.484308 0.101265
0.005670 0.293982 0.105134
0.007384 0.300237 0.101980
0.008891 0.303453 0.096856
0.010627 0.303929 0.088191
0.013159 0.305773 0.080629
0.018090 0.309352 0.073125
0.033736 0.314971 0.064599
0.062623 0.322670 0.055399
0.114300 0.333063 0.052869
0.165561 0.343052 0.054573
0.214604 0.352602 0.059076
0.261601 0.361476 0.065095
0.304399 0.369834 0.071482
0.342696 0.377488 0.077579
0.376082 0.381378 0.081183
0.408275 0.383108 0.081216
0.441761 0.385732 0.078538
0.475361 0.388456 0.073924
0.509743 0.389772 0.067092
0.547855 0.389736 0.057494
0.588645 0.390290 0.047351
0.627888 0.393754 0.039783
0.665810 0.399975 0.034493
0.702607 0.407451 0.031631
0.739591 0.416131 0.030471
0.775187 0.425141 0.030657
0.809070 0.434315 0.036262
0.839993 0.442500 0.041989
0.865731 0.450741 0.045901
0.888559 0.460771 0.055106
0.909153 0.471952 0.067547
0.925511 0.485945 0.079177
0.939887 0.502758 0.098270
0.007843 0.312973 0.114807
0.009661 0.319891 0.111910
0.011437 0.324534 0.106767
0.012975 0.324871 0.097884
0.014898 0.326010 0.089751
0.019002 0.329146 0.081852
0.032025 0.334532 0.073391
0.056300 0.341584 0.063399
0.103821 0.351555 0.058525
0.155388 0.361771 0.057952
0.205262 0.371650 0.060336
0.254737 0.380945 0.065376
0.299530 0.389553 0.071919
0.338640 0.397240 0.078617
0.375177 0.403803 0.084491
0.408786 0.407091 0.087611
0.440476 0.409004 0.087608
0.472801 0.412104 0.085366
0.508046 0.414622 0.080035
0.547787 0.415222 0.071071
0.589035 0.414720 0.060616
0.628951 0.415354 0.051155
0.667488 0.419263 0.043964
0.704299 0.426223 0.039563
0.742123 0.435093 0.036999
0.778592 0.444576 0.037178
0.812454 0.453545 0.040558
0.844460 0.461881 0.042710
0.870395 0.470206 0.045883
0.893929 0.480561 0.055089
0.914683 0.491317 0.064284
0.931097 0.504871 0.076101
0.945450 0.521073 0.095184
0.010360 0.333938 0.124666
0.012379 0.342004 0.122164
0.014399 0.348560 0.117986
0.015751 0.349034 0.110221
0.017467 0.349369 0.100232
0.020415 0.351452 0.089783
0.029721 0.356473 0.080641
0.054836 0.364181 0.071958
0.096596 0.373762 0.064851
0.145306 0.383704 0.061514
0.194866 0.393633 0.061771
0.245423 0.403271 0.066027
0.292513 0.412235 0.072987
0.333952 0.420262 0.080542
0.372533 0.428051 0.087691
0.409172 0.434055 0.092691
0.441750 0.436926 0.094890
0.472142 0.439294 0.095232
0.506860 0.442239 0.092589
0.547751 0.444059 0.085882
0.589695 0.444453 0.076812
0.629815 0.443732 0.066727
0.668997 0.443860 0.057027
0.706537 0.447423 0.049751
0.744490 0.454781 0.045318
0.782094 0.464337 0.044116
0.816299 0.472880 0.043293
0.849172 0.481286 0.042754
0.875038 0.490323 0.048308
0.898929 0.500165 0.055251
0.919891 0.510495 0.061902
0.936669 0.523621 0.074842
0.951027 0.539945 0.093043
0.013334 0.357891 0.135214
0.015437 0.366437 0.133103
0.017636 0.374577 0.129949
0.018961 0.375124 0.122337
0.020693 0.375084 0.110894
0.022864 0.376270 0.098382
0.028685 0.380400 0.086213
0.051717 0.388472 0.077872
0.087474 0.397703 0.070513
0.134012 0.407487 0.066131
0.186220 0.417771 0.065844
0.237826 0.427604 0.069674
0.284910 0.436536 0.076156
0.328501 0.444934 0.083728
0.369634 0.453175 0.091120
0.408887 0.460950 0.096953
0.444260 0.466241 0.100804
0.474616 0.468513 0.103161
0.507555 0.470657 0.103553
0.548291 0.473351 0.100045
0.591090 0.474739 0.092587
0.631804 0.474911 0.083493
0.670994 0.474090 0.073657
0.709491 0.474140 0.064260
0.747414 0.477512 0.056542
0.785279 0.484300 0.051608
0.820269 0.492796 0.048404
0.853114 0.500910 0.047387
0.879694 0.510054 0.052250
0.903436 0.520067 0.057668
0.924914 0.530037 0.063707
0.942072 0.542423 0.075920
0.956493 0.559267 0.092893
0.016501 0.382858 0.146129
0.018642 0.391290 0.143542
0.021123 0.400197 0.139563
0.022640 0.401256 0.131398
0.024360 0.401138 0.120227
0.026544 0.402118 0.108160
0.030869 0.405505 0.093186
0.046249 0.412362 0.081310
0.075301 0.420826 0.073793
0.121344 0.430867 0.070192
0.178208 0.441764 0.070569
0.232436 0.451894 0.074006
0.279304 0.460699 0.079411
0.323525 0.469129 0.086281
0.366583 0.477790 0.093761
0.407648 0.486225 0.100636
0.445359 0.493486 0.105935
0.478556 0.498024 0.109671
0.511366 0.499966 0.112221
0.549814 0.501828 0.111732
0.592721 0.504405 0.106828
0.634819 0.506205 0.099517
0.674759 0.506603 0.090817
0.713413 0.506176 0.081211
0.751817 0.506203 0.071198
0.788777 0.507744 0.062574
0.824278 0.513499 0.057363
0.856875 0.521072 0.055505
0.884057 0.530041 0.058066
0.908233 0.540289 0.062738
0.929951 0.550134 0.069299
0.947172 0.562477 0.079628
0.961620 0.578965 0.095097
0.019924 0.408054 0.156117
0.022226 0.416650 0.152432
0.024869 0.425436 0.147131
0.026633 0.427576 0.138828
0.028287 0.427034 0.127934
0.030688 0.427841 0.116195
0.035334 0.431096 0.101577
0.045437 0.436562 0.085930
0.070082 0.444345 0.077665
0.112379 0.454079 0.073307
0.168312 0.464964 0.072586
0.225114 0.475420 0.075072
0.275396 0.484705 0.080225
0.320939 0.493172 0.087007
0.364193 0.501814 0.094850
0.406217 0.510754 0.102929
0.445023 0.518587 0.109192
0.481516 0.525385 0.113943
0.517522 0.529510 0.118279
0.554272 0.530836 0.120551
0.594948 0.533275 0.119044
0.637794 0.536354 0.113982
0.679258 0.538461 0.106660
0.718143 0.538774 0.097823
0.756993 0.538289 0.088007
0.794228 0.537345 0.078062
0.828933 0.538447 0.070280
0.861076 0.543410 0.066427
0.888032 0.550677 0.066026
0.913336 0.560243 0.069184
0.934932 0.570986 0.076382
0.952137 0.583710 0.084649
0.966312 0.599670 0.099224
0.023609 0.433198 0.164197
0.025943 0.441613 0.160037
0.028439 0.449903 0.154831
0.030411 0.453092 0.146552
0.032129 0.452065 0.134493
0.034603 0.452343 0.121290
0.039494 0.455278 0.106625
0.052054 0.460954 0.093605
0.074212 0.468031 0.084699
0.110516 0.477015 0.077747
0.162117 0.487617 0.075307
0.219036 0.498340 0.077007
0.271510 0.508278 0.081981
0.318914 0.517294 0.088646
0.363706 0.526227 0.096480
0.405585 0.534896 0.104136
0.444747 0.542955 0.110534
0.483307 0.550539 0.116490
0.523437 0.557712 0.122770
0.562326 0.561573 0.127670
0.599870 0.562509 0.128949
0.641371 0.565927 0.126746
0.682653 0.569035 0.121430
0.722859 0.570300 0.113926
0.761843 0.570251 0.104877
0.799848 0.569752 0.095176
0.834474 0.569952 0.086798
0.865756 0.570792 0.079904
0.892398 0.573961 0.075735
0.917957 0.581242 0.076833
0.939757 0.592370 0.082287
0.956905 0.605571 0.090485
0.971037 0.620972 0.104609
0.027199 0.457217 0.171600
0.029444 0.464979 0.167223
0.031907 0.472544 0.161244
0.034109 0.477139 0.152829
0.035786 0.475925 0.140094
0.038157 0.475718 0.125586
0.043814 0.478846 0.110287
0.056841 0.484738 0.099112
0.078030 0.491492 0.091054
0.112115 0.500283 0.083317
0.162913 0.510850 0.080613
0.219555 0.521923 0.081514
0.269569 0.532044 0.084679
0.316866 0.541497 0.090470
0.363797 0.551149 0.098451
0.406537 0.560308 0.106430
0.445448 0.568333 0.113307
0.484753 0.576260 0.119956
0.527563 0.585078 0.127351
0.570265 0.591909 0.133930
0.608382 0.593800 0.137210
0.646336 0.595368 0.137588
0.686937 0.599779 0.135115
0.727622 0.602333 0.129392
0.766811 0.603782 0.121791
0.804549 0.603720 0.112790
0.840161 0.603229 0.103822
0.870996 0.602923 0.095877
0.897391 0.603782 0.089954
0.922291 0.606161 0.087159
0.944014 0.614654 0.089342
0.961312 0.627248 0.098250
0.975752 0.642588 0.111080
0.030723 0.479627 0.177356
0.033029 0.487324 0.172457
0.035512 0.494828 0.166252
0.037868 0.500685 0.158531
0.039505 0.499224 0.146329
0.041986 0.499294 0.133215
0.046874 0.502053 0.115161
0.055955 0.506793 0.101080
0.076283 0.514161 0.092961
0.113595 0.523764 0.087592
0.164355 0.534575 0.085743
0.218337 0.545883 0.085184
0.268802 0.556349 0.087191
0.316987 0.566100 0.092592
0.363804 0.575993 0.100544
0.407545 0.585698 0.109334
0.447502 0.594439 0.116864
0.487377 0.602603 0.123526
0.531379 0.611722 0.131277
0.577355 0.621360 0.139310
0.618210 0.626110 0.144667
0.653787 0.626069 0.146867
0.692160 0.629453 0.146819
0.732301 0.633263 0.143221
0.771608 0.635550 0.137096
0.809786 0.636457 0.129252
0.845628 0.636277 0.120812
0.876818 0.636320 0.113348
0.902363 0.636407 0.107035
0.927195 0.637114 0.101881
0.948430 0.639896 0.100126
0.965463 0.649238 0.106861
0.979803 0.663062 0.118859
0.034470 0.501289 0.180702
0.036739 0.508510 0.175307
0.039058 0.515903 0.169747
0.041551 0.523253 0.163248
0.043483 0.522522 0.151158
0.046215 0.522708 0.137567
0.051654 0.525372 0.120252
0.063037 0.530632 0.107827
0.082628 0.537939 0.098291
0.117135 0.547008 0.091456
0.164176 0.557758 0.088503
0.214609 0.568746 0.087303
0.266944 0.579358 0.089158
0.317858 0.589940 0.094387
0.365281 0.600187 0.102142
0.408683 0.609603 0.110520
0.448898 0.618523 0.118030
0.490791 0.627520 0.125633
0.536174 0.636996 0.134327
0.582051 0.646737 0.143203
0.626181 0.654858 0.150470
0.663858 0.657180 0.154497
0.696772 0.655734 0.155289
0.736378 0.659691 0.153820
0.776009 0.662882 0.149471
0.815000 0.665428 0.143351
0.850360 0.666418 0.136120
0.881435 0.666898 0.129080
0.907202 0.665417 0.121909
0.932606 0.665571 0.115780
0.953246 0.669130 0.114647
0.969407 0.673325 0.117276
0.981491 0.682075 0.127823
0.038168 0.522210 0.183309
0.040339 0.529289 0.178337
0.042746 0.536404 0.171802
0.045397 0.544128 0.164796
0.047333 0.544376 0.152952
0.050368 0.544195 0.136853
0.056728 0.547726 0.123300
0.069236 0.553272 0.113700
0.089013 0.559731 0.104707
0.120826 0.568145 0.096225
0.166731 0.578642 0.092628
0.215440 0.589645 0.090899
0.265669 0.600596 0.091565
0.318128 0.611936 0.096282
0.367826 0.622838 0.104373
0.411285 0.632173 0.112961
0.451301 0.640766 0.120756
0.493700 0.649868 0.128789
0.540106 0.659820 0.137842
0.586563 0.669479 0.146924
0.631356 0.677988 0.154534
0.671759 0.683183 0.160015
0.704387 0.682760 0.162645
0.740339 0.684436 0.163055
0.780108 0.688639 0.160670
0.818035 0.691648 0.155780
0.853090 0.692949 0.149251
0.883698 0.692756 0.142592
0.911123 0.692335 0.135844
0.936347 0.692165 0.129711
0.957638 0.694441 0.126416
0.973469 0.697185 0.127019
0.983790 0.703127 0.136486
0.041735 0.542439 0.185869
0.043907 0.549353 0.180766
0.046164 0.555401 0.173626
0.048791 0.562104 0.166718
0.051189 0.564358 0.156909
0.054951 0.565068 0.141480
0.060281 0.567641 0.126805
0.069131 0.571999 0.114875
0.091229 0.578913 0.107783
0.124804 0.587745 0.100946
0.169541 0.598208 0.097474
0.217290 0.608950 0.094658
0.267196 0.619991 0.094558
0.319818 0.631269 0.099223
0.368986 0.641923 0.107150
0.412548 0.651565 0.115767
0.453269 0.660716 0.123603
0.496332 0.670020 0.131413
0.543066 0.679666 0.140282
0.589620 0.689272 0.149688
0.634954 0.698386 0.158286
0.678347 0.707052 0.165595
0.714529 0.710462 0.170346
