CUBE/3dlut_lib/b.cube
# Copyright: (C) Copyright 2010-2020 by IWLTBAP SAS
# Cannot be resold, shared or otherwise redistributed
# Website: https://luts.iwltbap.com
TITLE "IWLTBAP 8120 (Rec.709, sRGB, DCI-P3)"
LUT_3D_SIZE 5
0.000000 0.000000 0.000000
0.214219 0.092506 0.058327
0.412567 0.177658 0.125229
0.605644 0.274452 0.207916
0.791870 0.353668 0.264008
0.000000 0.159218 0.035340
0.178501 0.206505 0.030029
0.459278 0.259441 0.018410
0.723198 0.320442 0.060486
0.886917 0.389328 0.155372
0.007843 0.312973 0.114807
0.103821 0.351555 0.058525
0.440476 0.409004 0.087608
0.742123 0.435093 0.036999
0.945450 0.521073 0.095184
0.034470 0.501289 0.180702
0.082628 0.537939 0.098291
0.448898 0.618523 0.118030
0.776009 0.662882 0.149471
0.981491 0.682075 0.127823
0.062866 0.625275 0.167999
0.138275 0.657891 0.119339
0.431656 0.721222 0.132644
0.763649 0.794968 0.190407
0.987183 0.800323 0.176575
0.000176 0.013626 0.323273
0.211111 0.035797 0.374891
0.462444 0.093018 0.307373
0.587897 0.189913 0.230280
0.746208 0.305649 0.267601
0.000000 0.244242 0.347939
0.062646 0.233976 0.324983
0.433163 0.293179 0.282126
0.726949 0.368835 0.294900
0.836224 0.472647 0.391657
0.000000 0.391011 0.368134
0.000355 0.389878 0.314658
0.369533 0.432119 0.314091
0.810508 0.498839 0.243175
0.952591 0.574963 0.299053
0.009438 0.554448 0.362030
0.033930 0.582176 0.294051
0.338528 0.635018 0.280741
0.738297 0.694401 0.298521
0.988699 0.725965 0.290691
0.045380 0.649254 0.290214
0.105114 0.682951 0.232300
0.401901 0.739647 0.220139
0.747995 0.815847 0.280870
0.992142 0.829178 0.260842
0.008850 0.074661 0.432221
0.047970 0.116547 0.528621
0.363564 0.115486 0.570610
0.633621 0.135055 0.545776
0.769714 0.246933 0.438476
0.000000 0.286888 0.538231
0.000000 0.290499 0.545090
0.311895 0.283659 0.576435
0.681468 0.296546 0.498152
0.794327 0.369217 0.420521
0.000000 0.439209 0.567489
0.000000 0.477282 0.577766
0.215386 0.459591 0.563599
0.681677 0.528656 0.509026
0.881325 0.662918 0.610352
0.000000 0.609383 0.575653
0.000000 0.655225 0.551236
0.079269 0.666403 0.520044
0.635621 0.729510 0.546357
0.975513 0.786488 0.550533
0.010437 0.698532 0.500717
0.026436 0.715855 0.452404
0.225685 0.752709 0.386894
0.685108 0.835739 0.439415
0.985367 0.875015 0.477982
0.021942 0.123489 0.528267
0.092199 0.166426 0.692305
0.220539 0.160591 0.712860
0.495109 0.173717 0.750158
0.780754 0.186798 0.757095
0.000000 0.293396 0.700405
0.000016 0.298661 0.708645
0.138313 0.274557 0.741326
0.511325 0.294023 0.780725
0.816336 0.314001 0.763716
0.000000 0.447937 0.725296
0.000000 0.480801 0.740764
0.009428 0.457840 0.770998
0.524560 0.490446 0.815601
0.865459 0.536617 0.778080
0.000000 0.626158 0.770296
0.000000 0.687505 0.787421
0.000000 0.706193 0.802335
0.483890 0.763284 0.833933
0.907684 0.853352 0.847805
0.000000 0.759148 0.780762
0.000000 0.779932 0.770724
0.001148 0.805431 0.755715
0.586445 0.884903 0.768534
0.958725 0.940491 0.788681
0.034393 0.150574 0.611786
0.109497 0.202987 0.751312
0.142166 0.202286 0.755112
0.403755 0.206100 0.785797
0.681152 0.213440 0.814209
0.000000 0.298836 0.739555
0.000609 0.287510 0.747826
0.077060 0.272072 0.767395
0.408171 0.274101 0.808897
0.708160 0.295975 0.841415
0.000000 0.434921 0.750519
0.000000 0.441624 0.764305
0.000000 0.413085 0.789093
0.401009 0.416515 0.853081
0.748795 0.454101 0.886719
0.000000 0.576050 0.790985
0.000000 0.615698 0.811531
0.000000 0.644371 0.851085
0.436390 0.699160 0.925301
0.834732 0.737534 0.951057
0.000000 0.722046 0.844696
0.000000 0.747039 0.861030
0.000000 0.794022 0.892731
0.275139 0.882164 0.955010
0.986786 0.987305 0.983307
